www/assets/icons/house.svg

<svg xmlns="http://www.w3.org/2000/svg" width="24" height="24" viewBox="0 0 24 24" fill='currentColor'><path d="M19 9.8V4.5h-3v2.6l-4-3.6-10 9h3v8h5v-6h4v6h5v-8h3zm-9 .7c0-1.1.9-2 2-2s2 .9 2 2z"/></svg>

<svg width="24" height="24" viewBox="0 0 24 24" xmlns="http://www.w3.org/2000/svg" fill='currentColor'><path d="M19 9.8V4.5H16V7.1L12 3.5L2 12.5H5V20.5H10V14.5H14V20.5H19V12.5H22L19 9.8ZM10 10.5C10 9.4 10.9 8.5 12 8.5C13.1 8.5 14 9.4 14 10.5H10Z"/></svg>
